assets/features/channel/southeast-asia/BRI.svg

<svg width="80" height="80" viewBox="0 0 80 80" fill="none" xmlns="http://www.w3.org/2000/svg">
<rect width="80" height="80" rx="8" fill="#1F4396"/>
<path fill-rule="evenodd" clip-rule="evenodd" d="M20 25.7358C20 22.5678 22.5679 20 25.7354 20H54.2646C57.4326 20 60 22.5678 60 25.7358V54.2647C60 57.4322 57.4326 60 54.2646 60H25.7354C22.5679 60 20 57.4322 20 54.2647V25.7358ZM43.3762 40.0753L56.0771 53.0217L56.0713 26.9877C56.0713 25.2982 54.7017 23.9291 53.0122 23.9291H48.5813C51.1408 24.5126 53.7858 29.3445 50.1421 33.1006L43.3762 40.0753ZM38.0497 23.9291H40.9985C45.5961 23.9291 49.0012 28.5875 46.0603 31.5325L37.5288 40.0753L53.2122 56.0746L36.6613 56.0714C40.218 56.0714 42.4629 50.0887 38.6567 46.1263L32.8447 40.0753L39.6111 33.1006C43.2543 29.3445 40.6098 24.5126 38.0497 23.9291ZM23.9193 53.0217C23.9193 54.7112 25.2889 56.0808 26.9779 56.0808H29.7735C33.7126 56.0808 37.8695 51.464 34.3195 47.7454L26.9977 40.0753L35.5292 31.5325C38.4696 28.5875 35.0651 23.9291 30.4674 23.9291H26.9779C25.2889 23.9291 23.9193 25.2982 23.9193 26.9877V53.0217Z" fill="white"/>
</svg>

<svg xmlns="http://www.w3.org/2000/svg" width="80" height="80" fill="none" viewBox="0 0 80 80"><rect width="80" height="80" fill="#1f4396" rx="8"/><path fill="#fff" fill-rule="evenodd" d="M20 25.736A5.736 5.736 0 0 1 25.735 20h28.53A5.735 5.735 0 0 1 60 25.736v28.529A5.735 5.735 0 0 1 54.265 60h-28.53A5.735 5.735 0 0 1 20 54.265zm23.376 14.34 12.701 12.946-.006-26.034c0-1.69-1.37-3.059-3.059-3.059h-4.43c2.559.584 5.204 5.416 1.56 9.172zM38.05 23.928h2.949c4.597 0 8.002 4.659 5.061 7.604l-8.531 8.542 15.683 16-16.55-.004c3.556 0 5.8-5.982 1.995-9.945l-5.812-6.05L39.61 33.1c3.643-3.756.999-8.588-1.561-9.172M23.92 53.022a3.06 3.06 0 0 0 3.058 3.059h2.795c3.94 0 8.097-4.617 4.546-8.336l-7.321-7.67 8.531-8.543c2.94-2.945-.464-7.603-5.062-7.603h-3.49a3.06 3.06 0 0 0-3.058 3.059z" clip-rule="evenodd"/></svg>
